app/dist/common/images/virginia-national-bankshares.svg

<svg height="18" viewBox="0 0 18 18" width="18" xmlns="http://www.w3.org/2000/svg"><path d="m0 0h18v18h-18z" fill="#f0f3fa"/><path d="m9 10.06v2.94h-.36c.09-1.73-.53-5.59-3.74-7.15l.73-.85c.82.42 2.64 2.02 3.37 5.06zm-4.68-3.47-.69.83c3.2.67 4 4 4 5.58h.64c-.01-4.61-2.64-6.2-3.95-6.4zm2.28 6.41c-.1-3.7-3.11-4.01-4.6-3.7l.94-1.14c3.47.04 4.36 3.24 4.37 4.84zm2.4-2.94v2.94h.36c-.09-1.73.53-5.59 3.74-7.15l-.73-.85c-.82.42-2.64 2.02-3.37 5.06zm4.68-3.47.69.83c-3.2.67-4 4-4 5.58h-.64c.01-4.61 2.64-6.2 3.95-6.4zm-2.28 6.41c.09-3.7 3.1-4.01 4.59-3.7l-.94-1.14c-3.47.04-4.36 3.24-4.37 4.84z" fill="#a1a1a1"/></svg>

<!-- by TradingView --><svg width="18" height="18" viewBox="0 0 18 18" xmlns="http://www.w3.org/2000/svg"><path fill="#F0F3FA" d="M0 0h18v18H0z"/><path d="M9 10.06V13h-.36c.09-1.73-.53-5.59-3.74-7.15L5.63 5c.82.42 2.64 2.02 3.37 5.06ZM4.32 6.59l-.69.83c3.2.67 4 4 4 5.58h.64c-.01-4.61-2.64-6.2-3.95-6.4ZM6.6 13C6.5 9.3 3.49 8.99 2 9.3l.94-1.14C6.41 8.2 7.3 11.4 7.31 13H6.6ZM9 10.06V13h.36c-.09-1.73.53-5.59 3.74-7.15L12.37 5c-.82.42-2.64 2.02-3.37 5.06Zm4.68-3.47.69.83c-3.2.67-4 4-4 5.58h-.64c.01-4.61 2.64-6.2 3.95-6.4ZM11.4 13c.09-3.7 3.1-4.01 4.59-3.7l-.94-1.14c-3.47.04-4.36 3.24-4.37 4.84h.72Z" fill="#A1A1A1"/></svg>
